packages/tokens/icons/globeLocation/size24Px.svg

<svg viewBox="0 0 24 24" fill="none" xmlns="http://www.w3.org/2000/svg" width="1em" height="1em"><path d="M21 12C21 16.9706 16.9706 21 12 21C7.02944 21 3 16.9706 3 12C3 7.02944 7.02944 3 12 3" stroke="currentColor" stroke-linecap="round"/><path d="M5.95714 9.73174L5.95387 9.69783L5.94602 9.66468C5.73797 8.78537 5.25797 7.99517 4.57784 7.39782C4.60617 7.31924 4.64192 7.22695 4.68623 7.12376C4.84002 6.76562 5.09494 6.28057 5.49655 5.78146C6.25928 4.83356 7.56754 3.81229 9.78755 3.52967C9.8045 3.64311 9.81625 3.7903 9.82211 3.964C9.8335 4.30182 9.82257 4.63034 9.81355 4.90109C9.80948 5.02355 9.80579 5.1342 9.80475 5.22854C9.69815 5.79697 9.78356 6.38399 10.048 6.90059L10.0604 6.92469L10.0752 6.94733C10.4194 7.47114 10.9678 7.55078 11.3598 7.56791C11.47 7.57273 11.609 7.57286 11.732 7.57298C11.8058 7.57305 11.8739 7.57312 11.9266 7.57419C12.1009 7.57772 12.237 7.59015 12.3491 7.62026L12.3643 7.62433L12.3796 7.62744C12.4122 7.63401 12.441 7.64868 12.4636 7.66856C12.4789 7.68202 12.4909 7.69744 12.4996 7.71381C12.4994 7.71503 12.4992 7.71624 12.4989 7.71746L12.4864 7.76949L12.4852 7.82299C12.4732 8.35481 12.298 8.87212 11.9805 9.30811C11.6717 9.73217 11.2416 10.0608 10.742 10.2523C10.414 10.3106 10.1109 10.4691 9.87738 10.708L9.82885 10.7576L9.79568 10.8187C9.57806 11.2189 9.5173 11.6839 9.62543 12.1256C9.67854 12.4732 9.65246 12.828 9.54876 13.1651C9.52045 13.2561 9.46302 13.3385 9.38206 13.3994C9.31086 13.453 9.22499 13.4872 9.1338 13.4974C9.0621 13.4798 8.96634 13.4175 8.80877 13.2218C8.7476 13.1458 8.69157 13.0691 8.62763 12.9814C8.59822 12.9411 8.56713 12.8985 8.5331 12.8527C8.43288 12.7176 8.31438 12.5648 8.17533 12.4262C7.88872 12.1406 7.54942 11.9737 7.28775 11.845L7.27861 11.8405C7.00724 11.707 6.81519 11.6106 6.66089 11.4714C6.26174 10.9669 6.01817 10.3637 5.95714 9.73174Z" stroke="currentColor"/><path d="M13.4467 16.0927L13.4393 16.029L13.416 15.9691C13.287 15.6371 13.0733 15.3447 12.7963 15.121C12.6007 14.9384 12.4488 14.7139 12.3519 14.4643C12.2566 14.2189 12.217 13.9554 12.2357 13.693C12.2832 13.488 12.4012 13.3058 12.5694 13.1784C12.7444 13.046 12.9618 12.9821 13.1806 12.9987C13.7549 13.0457 14.0749 13.2065 14.3666 13.4072C14.4425 13.4594 14.5281 13.5244 14.6231 13.5965C14.8724 13.7859 15.1862 14.0243 15.5583 14.2084L15.5786 14.2185L15.5998 14.2266C15.7596 14.2883 15.9067 14.3786 16.034 14.4929C16.0953 14.5723 16.1413 14.6626 16.1692 14.7592C16.1992 14.8626 16.208 14.971 16.1951 15.0779C16.1035 15.6227 15.8451 16.1258 15.4554 16.5177L15.4544 16.5187C14.9735 17.0052 14.5364 17.5332 14.1482 18.0965L14.1359 18.1145L14.1251 18.1334C14.0097 18.3367 13.9123 18.5478 13.8248 18.7373L13.821 18.7457C13.7295 18.944 13.648 19.1197 13.5551 19.2834L13.5498 19.2928L13.5449 19.3024C13.409 19.5679 13.1777 19.7719 12.8977 19.8737C12.8132 19.896 12.7233 19.8877 12.6441 19.85C12.5767 19.8179 12.521 19.7664 12.4837 19.7025C12.4731 19.6081 12.4759 19.5126 12.4921 19.4188C12.6339 18.6593 12.8757 17.9219 13.2114 17.226C13.4095 16.8835 13.4922 16.4862 13.4467 16.0927Z" stroke="currentColor"/><path d="M20.5 5.25C20.5 5.81837 20.1747 6.66999 19.6713 7.6121C19.1814 8.52886 18.5709 9.44594 18.0964 10.1161C17.9219 10.3626 17.5781 10.3626 17.4036 10.1161C16.9291 9.44594 16.3186 8.52886 15.8287 7.6121C15.3253 6.66999 15 5.81837 15 5.25C15 4.34894 15.3161 3.67221 15.7954 3.21906C16.279 2.76179 16.9633 2.5 17.75 2.5C18.5367 2.5 19.221 2.76179 19.7046 3.21906C20.1839 3.67221 20.5 4.34894 20.5 5.25Z" stroke="currentColor"/><circle cx="17.75" cy="5.24971" r="0.8" stroke="currentColor"/></svg>

<svg xmlns="http://www.w3.org/2000/svg" fill="none" viewBox="0 0 24 24" width="1em" height="1em"><path stroke="currentColor" stroke-linecap="round" d="M21 12a9 9 0 1 1-9-9"/><path stroke="currentColor" d="m5.957 9.732-.003-.034-.008-.033a4.353 4.353 0 0 0-1.368-2.267 5.826 5.826 0 0 1 .919-1.616c.762-.948 2.07-1.97 4.29-2.252.018.113.03.26.035.434.012.338 0 .666-.008.937-.005.123-.008.233-.01.328a2.61 2.61 0 0 0 .244 1.672l.012.024.015.022c.344.524.893.604 1.285.62.11.006.249.006.372.006l.195.001c.174.004.31.016.422.046l.015.004.016.003a.181.181 0 0 1 .084.042.161.161 0 0 1 .036.045l-.001.003-.013.052v.054a2.622 2.622 0 0 1-.506 1.485 2.746 2.746 0 0 1-1.238.944 1.6 1.6 0 0 0-.865.456l-.048.05-.033.06a1.82 1.82 0 0 0-.17 1.308 2.35 2.35 0 0 1-.077 1.04.468.468 0 0 1-.167.233.507.507 0 0 1-.248.098c-.072-.017-.168-.08-.325-.275a6.25 6.25 0 0 1-.181-.24l-.095-.13a3.756 3.756 0 0 0-.358-.426c-.286-.285-.626-.452-.887-.581l-.01-.005c-.27-.133-.463-.23-.617-.369a3.317 3.317 0 0 1-.704-1.74Zm7.49 6.361-.008-.064-.023-.06a2.04 2.04 0 0 0-.62-.848 1.78 1.78 0 0 1-.56-1.428.9.9 0 0 1 .945-.694c.574.047.894.207 1.186.408.075.052.161.117.256.19.25.189.563.427.935.611l.02.01.022.009c.16.061.307.152.434.266a.798.798 0 0 1 .161.585 2.67 2.67 0 0 1-.74 1.44 11.64 11.64 0 0 0-1.307 1.578l-.012.018-.01.02a7.685 7.685 0 0 0-.301.603l-.004.009a7.221 7.221 0 0 1-.266.537l-.005.01-.005.01a1.18 1.18 0 0 1-.647.57.37.37 0 0 1-.414-.17c-.01-.095-.008-.19.008-.284.142-.76.384-1.497.72-2.193.197-.342.28-.74.235-1.133ZM20.5 5.25c0 .568-.325 1.42-.829 2.362-.49.917-1.1 1.834-1.575 2.504a.417.417 0 0 1-.692 0c-.475-.67-1.085-1.587-1.575-2.504C15.325 6.67 15 5.818 15 5.25c0-.901.316-1.578.795-2.03.484-.458 1.168-.72 1.955-.72.787 0 1.471.262 1.955.72.479.452.795 1.129.795 2.03Z"/><circle cx="17.75" cy="5.25" r=".8" stroke="currentColor"/></svg>
